ids-wordpress/site-IdS/assets/images/icones redes sociais/Blog-icon.svg

<svg width="20" height="20" viewBox="0 0 20 20" fill="none" xmlns="http://www.w3.org/2000/svg">
<rect x="0.75" y="0.75" width="18.5" height="18.5" rx="1.25" stroke="#3A3A3A" stroke-width="1.5"/>
<path d="M13 4H6C4.89543 4 4 4.89543 4 6V14C4 15.1046 4.89543 16 6 16H14C15.1046 16 16 15.1046 16 14V8" stroke="#3A3A3A" stroke-linecap="round"/>
<mask id="path-3-outside-1_685_1957" maskUnits="userSpaceOnUse" x="6.1652" y="1.58579" width="12.7279" height="12.7279" fill="black">
<rect fill="white" x="6.1652" y="1.58579" width="12.7279" height="12.7279"/>
<path d="M17.1785 4.12074C17.4943 4.50808 17.4719 5.08003 17.1109 5.44104L11.532 11.0199L11.4547 11.082C11.4 11.1181 11.3393 11.1397 11.2772 11.1518L8.56136 12.5749L8.43844 12.6399L8.37284 12.6613C8.24369 12.6804 8.12701 12.5639 8.14634 12.4348L8.16844 12.3699L8.23266 12.2462L9.65378 9.53245C9.66562 9.4695 9.68905 9.40826 9.7256 9.35291L9.78843 9.27626L15.3673 3.69744C15.7284 3.33628 16.3002 3.31357 16.6876 3.62977L16.7621 3.69744L17.1109 4.04616L17.1785 4.12074ZM9.91411 10.0994L9.04059 11.767L10.7089 10.8942L9.91411 10.0994ZM10.1378 9.62429L11.184 10.6705L15.716 6.13848L14.6698 5.09232L10.1378 9.62429ZM16.4134 4.04616C16.2209 3.8536 15.9085 3.8536 15.716 4.04616L15.0185 4.7436L16.0647 5.78976L16.7621 5.09232C16.9546 4.89985 16.9544 4.58746 16.7621 4.39488L16.4134 4.04616Z"/>
</mask>
<path d="M17.1785 4.12074C17.4943 4.50808 17.4719 5.08003 17.1109 5.44104L11.532 11.0199L11.4547 11.082C11.4 11.1181 11.3393 11.1397 11.2772 11.1518L8.56136 12.5749L8.43844 12.6399L8.37284 12.6613C8.24369 12.6804 8.12701 12.5639 8.14634 12.4348L8.16844 12.3699L8.23266 12.2462L9.65378 9.53245C9.66562 9.4695 9.68905 9.40826 9.7256 9.35291L9.78843 9.27626L15.3673 3.69744C15.7284 3.33628 16.3002 3.31357 16.6876 3.62977L16.7621 3.69744L17.1109 4.04616L17.1785 4.12074ZM9.91411 10.0994L9.04059 11.767L10.7089 10.8942L9.91411 10.0994ZM10.1378 9.62429L11.184 10.6705L15.716 6.13848L14.6698 5.09232L10.1378 9.62429ZM16.4134 4.04616C16.2209 3.8536 15.9085 3.8536 15.716 4.04616L15.0185 4.7436L16.0647 5.78976L16.7621 5.09232C16.9546 4.89985 16.9544 4.58746 16.7621 4.39488L16.4134 4.04616Z" fill="#3A3A3A"/>
<path d="M17.1785 4.12074L17.2561 4.05746L17.2526 4.05354L17.1785 4.12074ZM11.532 11.0199L11.595 11.0983L11.6027 11.0906L11.532 11.0199ZM11.4547 11.082L11.51 11.1658L11.5173 11.16L11.4547 11.082ZM11.2772 11.1518L11.2582 11.0536L11.2438 11.0564L11.2308 11.0632L11.2772 11.1518ZM8.56136 12.5749L8.51494 12.4864L8.51466 12.4865L8.56136 12.5749ZM8.43844 12.6399L8.46946 12.7349L8.47758 12.7323L8.48514 12.7283L8.43844 12.6399ZM8.37284 12.6613L8.38749 12.7602L8.39584 12.7589L8.40386 12.7563L8.37284 12.6613ZM8.14634 12.4348L8.05168 12.4025L8.04878 12.4111L8.04745 12.42L8.14634 12.4348ZM8.16844 12.3699L8.0797 12.3238L8.07622 12.3305L8.07378 12.3376L8.16844 12.3699ZM8.23266 12.2462L8.14407 12.1999L8.14392 12.2001L8.23266 12.2462ZM9.65378 9.53245L9.74237 9.57884L9.7493 9.56561L9.75206 9.55093L9.65378 9.53245ZM9.7256 9.35291L9.64785 9.28917L9.64215 9.29781L9.7256 9.35291ZM9.78843 9.27626L9.71738 9.20521L9.7111 9.21286L9.78843 9.27626ZM16.6876 3.62977L16.7548 3.55561L16.7508 3.5523L16.6876 3.62977ZM16.7621 3.69744L16.8329 3.62665L16.8293 3.62338L16.7621 3.69744ZM17.1109 4.04616L17.185 3.97888L17.1816 3.97545L17.1109 4.04616ZM9.91411 10.0994L9.98482 10.0287L9.88864 9.93249L9.82553 10.053L9.91411 10.0994ZM9.04059 11.767L8.952 11.7206L8.80365 12.0038L9.08694 11.8556L9.04059 11.767ZM10.7089 10.8942L10.7553 10.9828L10.8759 10.9197L10.7796 10.8235L10.7089 10.8942ZM10.1378 9.62429L10.0671 9.55358L9.99642 9.62429L10.0671 9.695L10.1378 9.62429ZM11.184 10.6705L11.1133 10.7412L11.184 10.8119L11.2547 10.7412L11.184 10.6705ZM15.716 6.13848L15.7867 6.20919L15.8574 6.13848L15.7867 6.06777L15.716 6.13848ZM14.6698 5.09232L14.7405 5.02161L14.6698 4.9509L14.5991 5.02161L14.6698 5.09232ZM15.0185 4.7436L14.9478 4.67289L14.8771 4.7436L14.9478 4.81431L15.0185 4.7436ZM16.0647 5.78976L15.994 5.86047L16.0647 5.93118L16.1354 5.86047L16.0647 5.78976ZM16.7621 4.39488L16.8329 4.32423L16.8328 4.32417L16.7621 4.39488ZM17.1785 4.12074L17.101 4.18393C17.3848 4.53193 17.3645 5.04599 17.0401 5.37033L17.1109 5.44104L17.1816 5.51175C17.5793 5.11406 17.6039 4.48422 17.256 4.05755L17.1785 4.12074ZM17.1109 5.44104L17.0401 5.37033L11.4613 10.9492L11.532 11.0199L11.6027 11.0906L17.1816 5.51175L17.1109 5.44104ZM11.532 11.0199L11.4694 10.9419L11.3921 11.0041L11.4547 11.082L11.5173 11.16L11.5947 11.0978L11.532 11.0199ZM11.4547 11.082L11.3996 10.9986C11.3582 11.0259 11.3104 11.0435 11.2582 11.0536L11.2772 11.1518L11.2963 11.2499C11.3682 11.236 11.4419 11.2103 11.5098 11.1655L11.4547 11.082ZM11.2772 11.1518L11.2308 11.0632L8.51494 12.4864L8.56136 12.5749L8.60777 12.6635L11.3236 11.2403L11.2772 11.1518ZM8.56136 12.5749L8.51466 12.4865L8.39174 12.5514L8.43844 12.6399L8.48514 12.7283L8.60805 12.6634L8.56136 12.5749ZM8.43844 12.6399L8.40742 12.5448L8.34182 12.5662L8.37284 12.6613L8.40386 12.7563L8.46946 12.7349L8.43844 12.6399ZM8.37284 12.6613L8.35819 12.5623C8.29523 12.5717 8.23589 12.5121 8.24524 12.4496L8.14634 12.4348L8.04745 12.42C8.01813 12.6158 8.19215 12.7891 8.38749 12.7602L8.37284 12.6613ZM8.14634 12.4348L8.24101 12.467L8.26311 12.4021L8.16844 12.3699L8.07378 12.3376L8.05168 12.4025L8.14634 12.4348ZM8.16844 12.3699L8.25718 12.416L8.3214 12.2924L8.23266 12.2462L8.14392 12.2001L8.0797 12.3238L8.16844 12.3699ZM8.23266 12.2462L8.32125 12.2926L9.74237 9.57884L9.65378 9.53245L9.56519 9.48606L8.14407 12.1999L8.23266 12.2462ZM9.65378 9.53245L9.75206 9.55093C9.76164 9.49996 9.78042 9.45136 9.80904 9.40801L9.7256 9.35291L9.64215 9.29781C9.59768 9.36515 9.56959 9.43904 9.5555 9.51397L9.65378 9.53245ZM9.7256 9.35291L9.80293 9.41631L9.86577 9.33966L9.78843 9.27626L9.7111 9.21286L9.64826 9.28951L9.7256 9.35291ZM9.78843 9.27626L9.85914 9.34697L15.438 3.76815L15.3673 3.69744L15.2965 3.62673L9.71772 9.20555L9.78843 9.27626ZM15.3673 3.69744L15.438 3.76815C15.7625 3.44363 16.2764 3.42319 16.6243 3.70723L16.6876 3.62977L16.7508 3.5523C16.3241 3.20394 15.6943 3.22894 15.2965 3.62673L15.3673 3.69744ZM16.6876 3.62977L16.6204 3.70382L16.6949 3.7715L16.7621 3.69744L16.8293 3.62338L16.7548 3.55571L16.6876 3.62977ZM16.7621 3.69744L16.6914 3.76815L17.0401 4.11687L17.1109 4.04616L17.1816 3.97545L16.8328 3.62673L16.7621 3.69744ZM17.1109 4.04616L17.0368 4.11336L17.1045 4.18794L17.1785 4.12074L17.2526 4.05354L17.1849 3.97896L17.1109 4.04616ZM9.91411 10.0994L9.82553 10.053L8.952 11.7206L9.04059 11.767L9.12917 11.8134L10.0027 10.1458L9.91411 10.0994ZM9.04059 11.767L9.08694 11.8556L10.7553 10.9828L10.7089 10.8942L10.6626 10.8056L8.99423 11.6784L9.04059 11.767ZM10.7089 10.8942L10.7796 10.8235L9.98482 10.0287L9.91411 10.0994L9.8434 10.1701L10.6382 10.9649L10.7089 10.8942ZM10.1378 9.62429L10.0671 9.695L11.1133 10.7412L11.184 10.6705L11.2547 10.5997L10.2086 9.55358L10.1378 9.62429ZM11.184 10.6705L11.2547 10.7412L15.7867 6.20919L15.716 6.13848L15.6453 6.06777L11.1133 10.5997L11.184 10.6705ZM15.716 6.13848L15.7867 6.06777L14.7405 5.02161L14.6698 5.09232L14.5991 5.16303L15.6453 6.20919L15.716 6.13848ZM14.6698 5.09232L14.5991 5.02161L10.0671 9.55358L10.1378 9.62429L10.2086 9.695L14.7405 5.16303L14.6698 5.09232ZM16.4134 4.04616L16.4841 3.97545C16.2525 3.74383 15.8769 3.74383 15.6453 3.97545L15.716 4.04616L15.7867 4.11687C15.9402 3.96336 16.1892 3.96336 16.3427 4.11687L16.4134 4.04616ZM15.716 4.04616L15.6453 3.97545L14.9478 4.67289L15.0185 4.7436L15.0892 4.81431L15.7867 4.11687L15.716 4.04616ZM15.0185 4.7436L14.9478 4.81431L15.994 5.86047L16.0647 5.78976L16.1354 5.71905L15.0892 4.67289L15.0185 4.7436ZM16.0647 5.78976L16.1354 5.86047L16.8328 5.16303L16.7621 5.09232L16.6914 5.02161L15.994 5.71905L16.0647 5.78976ZM16.7621 5.09232L16.8328 5.16303C17.0644 4.93145 17.0641 4.55579 16.8329 4.32423L16.7621 4.39488L16.6914 4.46553C16.8447 4.61914 16.8448 4.86825 16.6914 5.02161L16.7621 5.09232ZM16.7621 4.39488L16.8328 4.32417L16.4841 3.97545L16.4134 4.04616L16.3427 4.11687L16.6914 4.46559L16.7621 4.39488Z" fill="#3A3A3A" mask="url(#path-3-outside-1_685_1957)"/>
<mask id="path-5-inside-2_685_1957" fill="white">
<rect x="5" y="6" width="4" height="2" rx="0.2"/>
</mask>
<rect x="5" y="6" width="4" height="2" rx="0.2" stroke="#3A3A3A" stroke-width="0.6" mask="url(#path-5-inside-2_685_1957)"/>
<path d="M5 9H8" stroke="#3A3A3A" stroke-width="0.3" stroke-linecap="round"/>
<path d="M5 10H7" stroke="#3A3A3A" stroke-width="0.3" stroke-linecap="round"/>
<path d="M6 14L7.55279 13.2236C7.83431 13.0828 8.16569 13.0828 8.44721 13.2236L9.55279 13.7764C9.83431 13.9172 10.1657 13.9172 10.4472 13.7764L12 13" stroke="#3A3A3A" stroke-width="0.5" stroke-linecap="round"/>
</svg>

<svg xmlns="http://www.w3.org/2000/svg" width="20" height="20" fill="none"><rect width="18.5" height="18.5" x=".75" y=".75" stroke="#3A3A3A" stroke-width="1.5" rx="1.25"/><path stroke="#3A3A3A" stroke-linecap="round" d="M13 4H6a2 2 0 0 0-2 2v8a2 2 0 0 0 2 2h8a2 2 0 0 0 2-2V8"/><mask id="a" width="12.728" height="12.728" x="6.165" y="1.586" fill="#000" maskUnits="userSpaceOnUse"><path fill="#fff" d="M6.165 1.586h12.728v12.728H6.165z"/><path d="M17.178 4.12a.987.987 0 0 1-.067 1.321l-5.579 5.579-.077.062a.489.489 0 0 1-.178.07l-2.716 1.423-.123.065-.065.021a.202.202 0 0 1-.227-.226l.022-.065.065-.124 1.42-2.714a.489.489 0 0 1 .073-.18l.062-.076 5.58-5.579a.987.987 0 0 1 1.32-.067l.074.067.349.35.067.074ZM9.915 10.1l-.873 1.667 1.668-.873-.795-.795Zm.224-.476 1.046 1.046 4.532-4.532-1.046-1.046-4.532 4.532Zm6.275-5.578a.493.493 0 0 0-.697 0l-.697.698 1.046 1.046.697-.698a.494.494 0 0 0 0-.697l-.349-.349Z"/></mask><path fill="#3A3A3A" d="M17.178 4.12a.987.987 0 0 1-.067 1.321l-5.579 5.579-.077.062a.489.489 0 0 1-.178.07l-2.716 1.423-.123.065-.065.021a.202.202 0 0 1-.227-.226l.022-.065.065-.124 1.42-2.714a.489.489 0 0 1 .073-.18l.062-.076 5.58-5.579a.987.987 0 0 1 1.32-.067l.074.067.349.35.067.074ZM9.915 10.1l-.873 1.667 1.668-.873-.795-.795Zm.224-.476 1.046 1.046 4.532-4.532-1.046-1.046-4.532 4.532Zm6.275-5.578a.493.493 0 0 0-.697 0l-.697.698 1.046 1.046.697-.698a.494.494 0 0 0 0-.697l-.349-.349Z"/><path fill="#3A3A3A" d="m17.178 4.12.078-.063-.003-.003-.075.067Zm-5.646 6.9.063.078.008-.007-.071-.071Zm-.077.062.055.084.007-.006-.062-.078Zm-.178.07-.019-.098-.014.002-.013.007.046.089Zm-2.716 1.423-.046-.089.046.089Zm-.123.065.031.095.009-.003.007-.004-.047-.088Zm-.065.021.014.1.009-.002.008-.003-.031-.095Zm-.227-.226-.094-.033-.003.01-.002.008.1.015Zm.022-.065-.088-.046-.004.007-.002.007.094.032Zm.065-.124-.089-.046.089.046Zm1.42-2.714.09.047.006-.013.003-.015-.098-.019Zm.073-.18-.078-.063-.006.009.084.055Zm.062-.076-.07-.07-.007.007.077.063Zm6.9-5.646.067-.074-.004-.004-.063.078Zm.074.067.07-.07-.003-.004-.067.074Zm.349.35.074-.068-.003-.004-.071.071Zm-7.197 6.052.07-.07-.095-.097-.063.121.088.046Zm-.873 1.668-.089-.046-.148.283.283-.148-.046-.089Zm1.668-.873.046.089.12-.063-.095-.097-.071.071Zm-.571-1.27-.07-.07-.072.07.071.071.07-.07Zm1.046 1.046-.07.071.07.07.07-.07-.07-.07Zm4.532-4.532.07.071.071-.07-.07-.071-.071.07ZM14.67 5.092l.07-.07-.07-.071-.07.07.07.071Zm.348-.348-.07-.071-.07.07.07.071.07-.07Zm1.047 1.046-.071.07.07.071.071-.07-.07-.071Zm.697-1.395.07-.07-.07.07Zm.416-.274-.077.063a.887.887 0 0 1-.06 1.186l.07.071.07.07a1.087 1.087 0 0 0 .075-1.453l-.078.063Zm-.067 1.32-.07-.07-5.58 5.578.071.07.07.072 5.58-5.58-.071-.07Zm-5.579 5.579-.063-.078-.077.062.063.078.062.078.078-.062-.063-.078Zm-.077.062-.055-.083a.388.388 0 0 1-.142.055l.02.098.018.098a.587.587 0 0 0 .214-.085l-.055-.083Zm-.178.07-.046-.089-2.716 1.423.046.089.047.089 2.716-1.424-.047-.088Zm-2.716 1.423-.046-.088-.123.064.046.089.047.088.123-.065-.047-.088Zm-.123.065-.03-.095-.066.021.03.095.032.095.065-.021-.03-.095Zm-.065.021-.015-.099a.102.102 0 0 1-.113-.112l-.099-.015-.099-.015c-.029.196.145.37.34.34l-.014-.099Zm-.227-.226.095.032.022-.065-.095-.032-.094-.032-.022.065.094.032Zm.022-.065.09.046.063-.124-.088-.046-.09-.046-.063.124.088.046Zm.065-.124.088.047 1.421-2.714-.088-.047-.089-.046-1.42 2.714.088.046Zm1.42-2.714.1.019c.009-.051.027-.1.056-.143l-.083-.055-.084-.055a.588.588 0 0 0-.086.216l.098.018Zm.073-.18.077.064.063-.076-.078-.064-.077-.063-.063.077.078.063Zm.062-.076.071.071 5.579-5.579-.07-.07-.072-.071-5.578 5.579.07.07Zm5.58-5.579.07.071a.887.887 0 0 1 1.186-.06l.064-.078.063-.078a1.087 1.087 0 0 0-1.455.075l.071.07Zm1.32-.067-.068.074.075.067.067-.074.067-.074-.074-.067-.067.074Zm.074.067-.07.071.348.349.07-.07.072-.072-.35-.348-.07.07Zm.349.35-.074.066.068.075.073-.067.075-.067-.068-.075-.074.067Zm-7.197 6.052-.088-.046-.874 1.668.089.046.088.046.874-1.667-.089-.047Zm-.873 1.668.046.089 1.668-.873-.046-.089-.046-.088-1.669.872.047.089Zm1.668-.873.07-.07-.794-.795-.07.07-.072.071.795.795.07-.07Zm-.571-1.27-.07.071 1.045 1.046.071-.07.07-.071-1.045-1.046-.071.07Zm1.046 1.046.07.071 4.533-4.532-.071-.07-.07-.071-4.533 4.532.071.07Zm4.532-4.532.07-.07-1.045-1.046-.071.07-.07.071 1.045 1.046.071-.07ZM14.67 5.092l-.07-.07-4.533 4.532.07.07.072.071 4.532-4.532-.071-.07Zm1.743-1.046.071-.07a.593.593 0 0 0-.839 0l.071.07.07.07a.393.393 0 0 1 .557 0l.07-.07Zm-.697 0-.07-.07-.698.697.07.07.071.071.698-.697-.071-.07Zm-.697.698-.071.07 1.046 1.046.07-.07.071-.07-1.046-1.047-.07.07Zm1.046 1.046.07.07.698-.697-.07-.07-.072-.071-.697.697.07.07Zm.697-.698.07.071a.594.594 0 0 0 0-.839l-.07.07-.07.072a.394.394 0 0 1 0 .556l.07.07Zm0-.697.07-.07-.348-.35-.07.071-.071.07.348.35.071-.071Z" mask="url(#a)"/><mask id="b" fill="#fff"><rect width="4" height="2" x="5" y="6" rx=".2"/></mask><rect width="4" height="2" x="5" y="6" stroke="#3A3A3A" stroke-width=".6" mask="url(#b)" rx=".2"/><path stroke="#3A3A3A" stroke-linecap="round" stroke-width=".3" d="M5 9h3M5 10h2"/><path stroke="#3A3A3A" stroke-linecap="round" stroke-width=".5" d="m6 14 1.553-.776a1 1 0 0 1 .894 0l1.106.552a1 1 0 0 0 .894 0L12 13"/></svg>
